svg/moon.svg

<svg xmlns="http://www.w3.org/2000/svg" viewBox="0 0 32 32" enable-background="new 0 0 32 32"><path d="M 16 3 C 13.077778 3 10.4661 3.97855 8.3125 5.59375 L 7.625 6.09375 L 8 6.84375 C 7.980743 6.8052361 8 6.8 8 7 C 8 7.5545455 7.5545455 8 7 8 C 6.8 8 6.8052361 7.980743 6.84375 8 L 6.09375 7.625 L 5.59375 8.3125 C 3.97855 10.4661 3 13.077778 3 16 C 3 20.976812 5.798051 25.422879 10.03125 27.59375 L 10.6875 27.9375 L 11.21875 27.40625 C 11.500899 27.124101 11.733333 27 12 27 C 12.466667 27 12.953857 27.444818 13 27.90625 L 13.09375 28.6875 L 13.84375 28.78125 C 14.530551 28.879364 15.204762 29 16 29 C 22.694624 29 28.149553 24.01722 28.90625 17.53125 L 28.96875 16.75 L 28.28125 16.46875 C 28.250824 16.45658 28 16.155556 28 16 C 28 15.844444 28.250824 15.54342 28.28125 15.53125 L 28.96875 15.25 L 28.90625 14.46875 C 28.149553 7.9827797 22.694624 3 16 3 z M 15.15625 5.03125 C 15.681379 5.3804584 17.187955 6.5042049 18.5625 8.71875 L 18.84375 9.1875 L 19.40625 9.1875 L 19.59375 9.1875 C 20.060417 9.1875 20.40625 9.5333333 20.40625 10 C 20.40625 10.266667 20.34107 10.346426 20 10.6875 L 19.5625 11.125 L 19.75 11.71875 C 19.82892 11.955504 19.941418 12.355504 20.0625 12.71875 L 20.25 13.28125 L 20.84375 13.375 C 20.981656 13.397984 21 13.438194 21 13.59375 C 21 13.69375 20.94561 13.761571 20.84375 13.8125 L 20.3125 14.09375 L 20.3125 14.6875 C 20.3125 15.254167 20.40625 15.766667 20.40625 16 C 20.40625 19.118182 19.534381 21.546012 18.53125 23.1875 L 18.25 23.65625 L 18.5 24.15625 C 18.6 24.35625 18.59375 24.328472 18.59375 24.40625 C 18.59375 24.63006 18.63006 24.59375 18.40625 24.59375 L 18.09375 24.59375 L 17.625 24.59375 L 17.3125 24.96875 C 16.401273 26.075239 15.615481 26.669143 15.21875 26.9375 C 15.001181 26.908677 14.793949 26.876651 14.5625 26.84375 C 14.08084 25.804239 13.194837 25 12 25 C 11.410611 25 10.932618 25.229974 10.5 25.5 C 7.2100505 23.586824 5 20.023828 5 16 C 5 13.72603 5.7541275 11.74409 6.9375 10 C 6.9500834 9.9999572 6.9887137 10 7 10 C 8.6454545 10 10 8.6454545 10 7 C 10 6.9887137 9.9999572 6.9500834 10 6.9375 C 11.526079 5.9020491 13.229667 5.1917736 15.15625 5.03125 z M 18.3125 5.25 C 22.735374 6.1858523 26.063636 9.7567356 26.78125 14.28125 C 26.328329 14.73907 26 15.303704 26 16 C 26 16.696296 26.328329 17.26093 26.78125 17.71875 C 26.06899 22.20951 22.77984 25.750796 18.40625 26.71875 C 18.480335 26.638481 18.550359 26.584915 18.625 26.5 C 19.692835 26.368317 20.59375 25.498427 20.59375 24.40625 C 20.59375 24.138562 20.50362 24.011885 20.4375 23.8125 C 21.535546 21.878136 22.40625 19.279496 22.40625 16 C 22.40625 15.595375 22.37291 15.326331 22.34375 15.0625 C 22.709122 14.672627 23 14.188108 23 13.59375 C 23 12.831511 22.51047 12.214682 21.875 11.8125 C 21.85442 11.74167 21.804 11.673369 21.78125 11.59375 C 22.104173 11.163671 22.40625 10.666667 22.40625 10 C 22.40625 8.612069 21.302763 7.5530599 19.96875 7.34375 C 19.422367 6.5276598 18.851892 5.8316054 18.3125 5.25 z M 13.71875 8.34375 C 12.420582 8.3375642 11.232349 9.2046695 10.84375 10.5 C 10.368002 12.085826 11.443447 13.623659 12.90625 14.0625 L 13.5 12.15625 C 12.962803 11.995091 12.625748 11.507924 12.75 11.09375 C 12.905887 10.574128 13.409112 10.275572 13.90625 10.375 L 14.28125 8.40625 C 14.093392 8.3686785 13.904203 8.3446337 13.71875 8.34375 z M 8.71875 15.78125 C 7.5739728 16.271869 6.8450739 17.563568 7.40625 18.78125 C 7.4125284 18.785571 7.4031185 18.80555 7.40625 18.8125 C 7.41251 18.8264 7.430991 18.83 7.4375 18.84375 C 7.9648284 19.958052 9.280727 20.647546 10.5 20.125 L 9.71875 18.28125 C 9.568124 18.345804 9.3195264 18.235145 9.21875 18 L 9.21875 17.96875 L 9.1875 17.9375 C 9.2055186 17.973537 9.264855 17.725776 9.5 17.625 L 8.71875 15.78125 z M 13.1875 19.09375 C 11.9715 20.00575 11.516 21.78175 12.5 23.09375 C 13.412 24.30975 15.188 24.7965 16.5 23.8125 L 15.3125 22.1875 C 15.0245 22.4035 14.38175 22.29025 14.09375 21.90625 C 13.87775 21.61825 14.02225 20.9755 14.40625 20.6875 L 13.1875 19.09375 z" color="#000" overflow="visible" enable-background="accumulate"/></svg>

<svg xmlns="http://www.w3.org/2000/svg" viewBox="0 0 32 32"><path style="text-indent:0;text-align:start;line-height:normal;text-transform:none;block-progression:tb;-inkscape-font-specification:Bitstream Vera Sans" d="M16 3c-2.922 0-5.534.98-7.688 2.594l-.687.5.375.75C7.98 6.804 8 6.8 8 7c0 .555-.445 1-1 1-.2 0-.195-.02-.156 0l-.75-.375-.5.688C3.98 10.466 3 13.078 3 16c0 4.977 2.798 9.423 7.03 11.594l.658.343.53-.53c.283-.283.515-.407.782-.407.467 0 .954.445 1 .906l.094.782.75.093c.687.1 1.36.22 2.156.22 6.695 0 12.15-4.983 12.906-11.47l.063-.78-.69-.28c-.03-.013-.28-.314-.28-.47 0-.156.25-.457.28-.47l.69-.28-.064-.78C28.15 7.982 22.696 3 16 3zm-.844 2.03c.525.35 2.032 1.474 3.406 3.69l.282.467h.75c.466 0 .812.346.812.813 0 .267-.065.346-.406.688l-.438.437.188.594c.08.236.19.636.313 1l.187.56.594.095c.138.023.156.063.156.22 0 .1-.054.167-.156.217l-.532.282v.594c0 .566.094 1.08.094 1.312 0 3.118-.872 5.546-1.875 7.188l-.28.468.25.5c.1.2.094.172.094.25 0 .224.036.188-.188.188h-.782l-.31.375c-.913 1.105-1.7 1.7-2.095 1.968-.22-.03-.426-.06-.658-.094C14.082 25.804 13.195 25 12 25c-.59 0-1.067.23-1.5.5C7.21 23.587 5 20.024 5 16c0-2.274.754-4.256 1.938-6H7c1.645 0 3-1.355 3-3v-.063c1.526-1.035 3.23-1.745 5.156-1.906zm3.156.22c4.423.936 7.752 4.507 8.47 9.03-.454.46-.782 1.024-.782 1.72s.328 1.26.78 1.72c-.71 4.49-4 8.03-8.374 9 .074-.082.144-.135.22-.22 1.067-.132 1.968-1.002 1.968-2.094 0-.267-.09-.394-.157-.593 1.1-1.935 1.97-4.534 1.97-7.813 0-.405-.034-.674-.063-.938.365-.39.656-.874.656-1.468 0-.762-.49-1.38-1.125-1.78-.02-.072-.07-.14-.094-.22.324-.43.626-.927.626-1.594 0-1.388-1.103-2.447-2.437-2.656-.548-.816-1.118-1.512-1.657-2.094zM13.72 8.344c-1.3-.006-2.488.86-2.876 2.156-.476 1.586.6 3.124 2.062 3.563l.594-1.907c-.537-.16-.874-.648-.75-1.062.156-.52.66-.818 1.156-.72l.375-1.968c-.187-.037-.376-.06-.56-.062zm-5 7.437c-1.146.492-1.875 1.784-1.314 3 .007.006-.003.026 0 .032.007.014.025.018.032.032.527 1.114 1.843 1.804 3.062 1.28l-.78-1.843c-.152.066-.4-.045-.5-.28v-.03l-.033-.032c.02.036.078-.212.313-.313l-.78-1.844zm4.467 3.314c-1.215.912-1.67 2.688-.687 4 .912 1.216 2.688 1.703 4 .718l-1.188-1.625c-.287.216-.93.103-1.218-.28-.216-.29-.072-.93.312-1.22l-1.22-1.593z" color="#000" overflow="visible" font-family="Bitstream Vera Sans"/></svg>
